X: 4513
T: Boogie, The
R: reel
M: 4/4
K: Dmajor
|:DEFA d2cd|BAFB AFEF|DEFA dfec|dBAF EGFE|
DEFA d3e|fded BAFA|edef gece|1 dAFA d2 FE:|2 dAFA d2cd||
|:eA A2 EA A2|eAce g2 fg|fd d2 Ad d2|fgaf d2cd|
Beed efed|(3Bcd ef gefg|afdf gece|1 dAFA d2cd:|2 dAFA d2 FE||

